packages/elvis-assets-icons/icons/svg/src/open_menu.svg

<svg width="24" height="24" viewBox="0 0 24 24" fill="none" xmlns="http://www.w3.org/2000/svg">
<path fill-rule="evenodd" clip-rule="evenodd" d="M15.5303 7.71967C15.2374 7.42678 14.7626 7.42678 14.4697 7.71967C14.1768 8.01256 14.1768 8.48744 14.4697 8.78033L16.9393 11.25H0.75C0.335786 11.25 0 11.5858 0 12C0 12.4142 0.335786 12.75 0.75 12.75H16.9393L14.4697 15.2197C14.1768 15.5126 14.1768 15.9874 14.4697 16.2803C14.7626 16.5732 15.2374 16.5732 15.5303 16.2803L19.2803 12.5303C19.4268 12.3839 19.5 12.1919 19.5 12C19.5 11.8983 19.4798 11.8013 19.4431 11.7129C19.4065 11.6245 19.3522 11.5416 19.2803 11.4697L15.5303 7.71967Z" fill="black"/>
<path fill-rule="evenodd" clip-rule="evenodd" d="M23.25 0.75C23.6642 0.75 24 1.08579 24 1.5V22.5C24 22.9142 23.6642 23.25 23.25 23.25C22.8358 23.25 22.5 22.9142 22.5 22.5V1.5C22.5 1.08579 22.8358 0.75 23.25 0.75Z" fill="black"/>
</svg>

<svg width="24" height="24" fill="none" xmlns="http://www.w3.org/2000/svg"><path fill-rule="evenodd" clip-rule="evenodd" d="M15.53 7.72a.75.75 0 10-1.06 1.06l2.47 2.47H.75a.75.75 0 000 1.5h16.19l-2.47 2.47a.75.75 0 101.06 1.06l3.75-3.75a.747.747 0 000-1.06l-3.75-3.75zM23.25.75a.75.75 0 01.75.75v21a.75.75 0 01-1.5 0v-21a.75.75 0 01.75-.75z" fill="#000"/></svg>
